gallery-images/shape3.svg

<svg width="277" height="276" viewBox="0 0 277 276" fill="none" xmlns="http://www.w3.org/2000/svg">
<g clip-path="url(#clip0)">
<path fill-rule="evenodd" clip-rule="evenodd" d="M680.009 697.269L882.047 476.871L461.777 18.4102L259.74 238.808L680.009 697.269Z" stroke="#231F20" stroke-width="0.01"/>
<path fill-rule="evenodd" clip-rule="evenodd" d="M-118.443 98.6441L112.898 351.008L430.814 4.20115L199.473 -248.163L-118.443 98.6441Z" stroke="#231F20" stroke-width="0.01"/>
<path d="M315.144 -121.981L-2.77271 224.826" stroke="#231F20" stroke-width="0.01"/>
<path d="M0.539062 221.214L-3.24564 225.342" stroke="#231F20"/>
<path d="M5.97993 214.763C13.0274 207.075 31.9357 199.011 45.462 202.397C64.2034 207.091 193.066 282.635 110.661 264.138C76.9069 256.561 58.1468 235.178 34.627 207.204C5.44513 172.496 -13.2041 127.795 -32.5287 86.5493C-36.6337 77.7891 -40.5365 68.6974 -41.5966 59.406C-41.8111 57.5096 -41.833 55.3912 -40.635 54.2434C-39.5045 53.1601 -37.6753 53.3191 -36.0373 53.6926C-24.5424 56.3146 -14.8054 66.4143 -6.42589 76.3745C31.9427 121.981 51.6851 171.712 101.509 203.913C114.637 212.399 129.971 218.739 143.139 214.946C155.258 211.449 163.105 200.129 169.359 188.716C175.613 177.303 181.279 164.891 191.326 157.441C201.375 149.992 217.514 149.34 227.52 160.343C232.342 165.645 235.007 172.855 235.715 179.779C236.914 191.466 232.655 202.707 224.645 208.987C211.883 218.997 192.688 215.71 175.883 209.417C140.795 196.274 118.67 180.698 89.8223 153.03C76.3322 140.091 63.2671 126.114 53.8412 109.635C44.4139 93.1577 38.8982 73.7725 41.8104 56.5862C44.4997 40.7173 64.1059 19.7376 57.0511 2.57431C50.5133 -13.3347 27.8055 -19.9036 14.8169 -19.5249C-1.77785 -19.0411 -3.53189 -5.88778 3.20801 10.0978C21.2576 52.9144 50.8753 128.02 102.757 123.185C117.597 121.804 129.575 111.873 138.968 101.066C150.503 87.7984 162.632 75.1848 175.502 63.3332C191.591 48.5184 208.516 34.7298 226.184 22.0424C232.962 17.1781 273.377 -1.69015 269.986 -13.4855C268.736 -17.8318 263.454 -18.7888 259.423 -19.3932C238.829 -22.495 221.143 -43.6726 219.248 -65.8606C217.452 -86.8679 228.753 -105.331 244.91 -113.878C264.594 -124.291 275.634 -112.893 292.068 -97.672C306.144 -84.6364 305.646 -112.484 309.071 -116.22" stroke="#231F20"/>
</g>
<defs>
<clipPath id="clip0">
<rect width="277" height="276" fill="white"/>
</clipPath>
</defs>
</svg>

<svg id="Layer_1" data-name="Layer 1" xmlns="http://www.w3.org/2000/svg" xmlns:xlink="http://www.w3.org/1999/xlink" viewBox="0 0 924.264 815.673"><defs><style>.cls-1,.cls-3,.cls-4{fill:none;}.cls-2{clip-path:url(#clip-path);}.cls-3,.cls-4{stroke:#231f20;}.cls-3{stroke-width:0.01px;}</style><clipPath id="clip-path" transform="translate(42.21 118.397)"><rect class="cls-1" width="277" height="276"/></clipPath></defs><g class="cls-2"><path class="cls-3" d="M680.009,697.269l202.038-220.4L461.777,18.41,259.74,238.808Z" transform="translate(42.21 118.397)"/><path class="cls-4" d="M.539,221.214l-3.785,4.128" transform="translate(42.21 118.397)"/><path class="cls-4" d="M5.98,214.763c7.047-7.688,25.956-15.752,39.482-12.366,18.741,4.694,147.6,80.238,65.2,61.741-33.754-7.577-52.514-28.96-76.034-56.934C5.445,172.5-13.2,127.8-32.529,86.549c-4.1-8.76-8.007-17.852-9.068-27.143-.214-1.9-.236-4.015.962-5.163,1.13-1.083,2.96-.924,4.6-.55C-24.542,56.315-14.8,66.414-6.426,76.374c38.369,45.607,58.111,95.338,107.935,127.539,13.128,8.486,28.462,14.826,41.63,11.033,12.119-3.5,19.966-14.817,26.22-26.23s11.92-23.825,21.967-31.275,26.188-8.1,36.194,2.9c4.822,5.3,7.487,12.512,8.195,19.436,1.2,11.687-3.06,22.928-11.07,29.208-12.762,10.01-31.957,6.723-48.762.43C140.795,196.274,118.67,180.7,89.822,153.03c-13.49-12.939-26.555-26.916-35.981-43.395S38.9,73.772,41.81,56.586c2.69-15.869,22.3-36.848,15.241-54.012C50.513-13.335,27.806-19.9,14.817-19.525-1.778-19.041-3.532-5.888,3.208,10.1c18.05,42.816,47.667,117.922,99.549,113.087,14.84-1.381,26.818-11.312,36.211-22.119A473.342,473.342,0,0,1,175.5,63.333a538.8,538.8,0,0,1,50.682-41.291c6.778-4.864,47.193-23.732,43.8-35.528-1.25-4.346-6.532-5.3-10.563-5.907-20.594-3.1-38.28-24.28-40.175-46.468a49.543,49.543,0,0,1,25.662-48.017c19.684-10.413,30.724.985,47.158,16.206,14.076,13.036,13.578-14.812,17-18.548" transform="translate(42.21 118.397)"/></g></svg>
